icons/mobile/24/svg/image-slash-24.svg

<svg width="24" height="24" viewBox="0 0 24 24" fill="none" xmlns="http://www.w3.org/2000/svg">
<path fill-rule="evenodd" clip-rule="evenodd" d="M2.25579 2.25579C2.5975 1.91408 3.15237 1.91408 3.49407 2.25579L21.7441 20.5058C22.0858 20.8475 22.0858 21.4024 21.7441 21.7441C21.4024 22.0858 20.8475 22.0858 20.5058 21.7441L19.1005 20.3388C18.8606 20.4421 18.6046 20.5157 18.3359 20.5536C16.2429 20.8496 14.1109 20.9999 12.0009 20.9999C9.902 20.9999 7.78116 20.8515 5.69525 20.5585C4.15925 20.3425 3.00091 19.0099 3.00091 17.4589V6.53802C3.00091 5.89181 3.20149 5.28614 3.54583 4.78411L2.25579 3.49407C1.91408 3.15237 1.91408 2.5975 2.25579 2.25579ZM4.83197 6.07025C4.77946 6.21692 4.75091 6.37471 4.75091 6.53802V17.4589C4.75091 18.1419 5.26139 18.7301 5.93939 18.8261C9.80759 19.3681 13.7682 19.3851 17.6415 18.8798L15.6767 16.915C15.503 16.9688 15.3189 16.9999 15.1269 16.9999H8.87689C7.84089 16.9999 7.00189 16.1619 7.00189 15.1279V14.539C7.00189 14.005 7.17314 13.4846 7.49114 13.0556L9.25579 10.6708C9.28099 10.6368 9.30783 10.6046 9.33489 10.5732L4.83197 6.07025Z" fill="black"/>
<path d="M6.69427 3.33685C10.5421 2.88389 14.4638 2.9014 18.3056 3.44134C19.8416 3.65734 20.9999 4.98995 20.9999 6.54095V17.4628C20.9999 17.5188 20.9883 17.5729 20.9853 17.6288L19.2499 15.8935V6.54095C19.2499 5.85808 18.7402 5.26993 18.0624 5.17376C16.0584 4.89276 14.0179 4.74993 11.9999 4.74993C10.764 4.74994 9.52305 4.82168 8.28411 4.92767L6.69427 3.33685Z" fill="black"/>
<path d="M15.7499 8.49993C16.4403 8.49993 16.9999 9.05958 16.9999 9.74993C16.9999 10.4403 16.4403 10.9999 15.7499 10.9999C15.0596 10.9999 14.4999 10.4403 14.4999 9.74993C14.4999 9.05958 15.0596 8.49993 15.7499 8.49993Z" fill="black"/>
</svg>

<!-- This Source Code Form is subject to the terms of the Mozilla Public
   - License, v. 2.0. If a copy of the MPL was not distributed with this
   - file, You can obtain one at http://mozilla.org/MPL/2.0/. -->
<svg xmlns="http://www.w3.org/2000/svg" width="24" height="24" fill="none" viewBox="0 0 24 24">
    <path fill="#000" fill-rule="evenodd" d="M2.256 2.256a.876.876 0 0 1 1.238 0l18.25 18.25a.876.876 0 0 1-1.238 1.238L19.1 20.34q-.36.156-.765.215A45 45 0 0 1 12 21c-2.099 0-4.22-.148-6.306-.442A3.144 3.144 0 0 1 3 17.458V6.539c0-.646.2-1.252.545-1.754l-1.29-1.29a.876.876 0 0 1 0-1.238M4.832 6.07a1.4 1.4 0 0 0-.081.468v10.92c0 .684.51 1.272 1.188 1.368 3.869.542 7.83.56 11.703.054l-1.965-1.965a1.9 1.9 0 0 1-.55.085h-6.25a1.873 1.873 0 0 1-1.875-1.872v-.589c0-.534.171-1.054.49-1.483l1.764-2.385q.038-.05.079-.098z" clip-rule="evenodd" />
    <path fill="#000" d="M6.694 3.337c3.848-.453 7.77-.436 11.612.104A3.144 3.144 0 0 1 21 6.541v10.922c0 .056-.012.11-.015.166l-1.735-1.736V6.541c0-.683-.51-1.271-1.188-1.367A44 44 0 0 0 12 4.75c-1.236 0-2.477.072-3.716.178z" />
    <path fill="#000" d="M15.75 8.5a1.25 1.25 0 1 1 0 2.5 1.25 1.25 0 0 1 0-2.5" />
</svg>
